svg/set/SCD/C.svg

<?xml version="1.0" encoding="utf-8"?>
<!-- Generator: Adobe Illustrator 15.1.0, SVG Export Plug-In . SVG Version: 6.00 Build 0)  -->
<!DOCTYPE svg PUBLIC "-//W3C//DTD SVG 1.1//EN" "http://www.w3.org/Graphics/SVG/1.1/DTD/svg11.dtd">
<svg version="1.1"
	 id="Layer_1" xmlns:rdf="http://www.w3.org/1999/02/22-rdf-syntax-ns#" xmlns:cc="http://creativecommons.org/ns#" xmlns:dc="http://purl.org/dc/elements/1.1/" xmlns:svg="http://www.w3.org/2000/svg"
	 xmlns="http://www.w3.org/2000/svg" xmlns:xlink="http://www.w3.org/1999/xlink" x="0px" y="0px" width="150px" height="156px"
	 viewBox="0 0 150 156" enable-background="new 0 0 150 156" xml:space="preserve">
<g>
	<polygon fill="#FFFFFF" points="10.064,95.229 10.064,69.258 5.338,38.309 38.454,22.451 50.338,2.643 99.143,2.643 
		111.025,22.451 144.145,38.309 139.417,69.258 139.417,95.229 74.74,152.643 	"/>
	<polygon points="16.257,92.445 16.257,68.788 12.152,41.911 42.805,27.232 53.844,8.836 95.637,8.836 106.676,27.232 
		137.328,41.911 133.223,68.788 133.223,92.445 74.74,144.363 	"/>
	<path fill="#FFFFFF" d="M101.837,32.545L91.738,15.716H57.741L47.643,32.545l-27.92,13.369l3.414,22.352v21.089l51.604,45.81
		l51.603-45.81V68.266l3.414-22.352L101.837,32.545z M59.688,19.156h30.104l8.681,14.465l-23.729,31.97l-23.72-31.989L59.688,19.156
		z M76.462,71.021l45.003,18.063L76.46,129.037L76.462,71.021z M73.021,129.037L28.016,89.084l45.006-18.063L73.021,129.037
		L73.021,129.037z M48.486,35.955l23.545,31.757L26.576,85.955v-17.95l-3.068-20.09L48.486,35.955z M122.902,68.005v17.948
		l-45.45-18.241l23.563-31.746l24.957,11.949L122.902,68.005z"/>
	<path fill="#FFFFFF" d="M74.74,46.921c-5.209,0-9.446-4.237-9.446-9.446c0-5.207,4.237-9.444,9.446-9.444s9.445,4.237,9.445,9.444
		C84.188,42.684,79.949,46.921,74.74,46.921z"/>
	<path fill="#FFFFFF" d="M42.918,69.971c-5.208,0-9.445-4.236-9.445-9.445s4.237-9.445,9.445-9.445c5.209,0,9.445,4.236,9.445,9.445
		C52.363,65.732,48.127,69.971,42.918,69.971z"/>
	<path fill="#FFFFFF" d="M57.023,104.545c-5.209,0-9.447-4.236-9.447-9.445s4.238-9.447,9.447-9.447
		c5.207,0,9.444,4.238,9.444,9.447C66.469,100.309,62.232,104.545,57.023,104.545z"/>
	<path fill="#FFFFFF" d="M106.563,69.971c-5.209,0-9.444-4.236-9.444-9.445s4.235-9.445,9.444-9.445s9.446,4.236,9.446,9.445
		C116.009,65.732,111.771,69.971,106.563,69.971z"/>
	<path fill="#FFFFFF" d="M92.457,104.545c-5.209,0-9.445-4.236-9.445-9.445s4.236-9.447,9.445-9.447s9.447,4.238,9.447,9.447
		S97.666,104.545,92.457,104.545z"/>
</g>
</svg>

<?xml version="1.0" encoding="UTF-8" standalone="no"?>
<!-- Generator: Adobe Illustrator 15.1.0, SVG Export Plug-In . SVG Version: 6.00 Build 0)  -->

<svg
   version="1.1"
   id="Layer_1"
   x="0px"
   y="0px"
   width="138.80701"
   height="150"
   viewBox="0 0 138.80701 150"
   enable-background="new 0 0 150 156"
   xml:space="preserve"
   xmlns="http://www.w3.org/2000/svg"
   xmlns:svg="http://www.w3.org/2000/svg"><defs
   id="defs7" />
<g
   id="g7"
   transform="translate(-5.338,-2.643)">
	<polygon
   fill="#ffffff"
   points="5.338,38.309 38.454,22.451 50.338,2.643 99.143,2.643 111.025,22.451 144.145,38.309 139.417,69.258 139.417,95.229 74.74,152.643 10.064,95.229 10.064,69.258 "
   id="polygon1" />
	<polygon
   points="12.152,41.911 42.805,27.232 53.844,8.836 95.637,8.836 106.676,27.232 137.328,41.911 133.223,68.788 133.223,92.445 74.74,144.363 16.257,92.445 16.257,68.788 "
   id="polygon2" />
	<path
   fill="#ffffff"
   d="M 101.837,32.545 91.738,15.716 H 57.741 l -10.098,16.829 -27.92,13.369 3.414,22.352 v 21.089 l 51.604,45.81 51.603,-45.81 V 68.266 l 3.414,-22.352 z M 59.688,19.156 H 89.792 L 98.473,33.621 74.744,65.591 51.024,33.602 Z M 76.462,71.021 121.465,89.084 76.46,129.037 Z M 73.021,129.037 28.016,89.084 73.022,71.021 Z M 48.486,35.955 72.031,67.712 26.576,85.955 v -17.95 l -3.068,-20.09 z m 74.416,32.05 v 17.948 l -45.45,-18.241 23.563,-31.746 24.957,11.949 z"
   id="path2" />
	<path
   fill="#ffffff"
   d="m 74.74,46.921 c -5.209,0 -9.446,-4.237 -9.446,-9.446 0,-5.207 4.237,-9.444 9.446,-9.444 5.209,0 9.445,4.237 9.445,9.444 0.003,5.209 -4.236,9.446 -9.445,9.446 z"
   id="path3" />
	<path
   fill="#ffffff"
   d="m 42.918,69.971 c -5.208,0 -9.445,-4.236 -9.445,-9.445 0,-5.209 4.237,-9.445 9.445,-9.445 5.209,0 9.445,4.236 9.445,9.445 0,5.206 -4.236,9.445 -9.445,9.445 z"
   id="path4" />
	<path
   fill="#ffffff"
   d="m 57.023,104.545 c -5.209,0 -9.447,-4.236 -9.447,-9.445 0,-5.209 4.238,-9.447 9.447,-9.447 5.207,0 9.444,4.238 9.444,9.447 0.002,5.209 -4.235,9.445 -9.444,9.445 z"
   id="path5" />
	<path
   fill="#ffffff"
   d="m 106.563,69.971 c -5.209,0 -9.444,-4.236 -9.444,-9.445 0,-5.209 4.235,-9.445 9.444,-9.445 5.209,0 9.446,4.236 9.446,9.445 0,5.206 -4.238,9.445 -9.446,9.445 z"
   id="path6" />
	<path
   fill="#ffffff"
   d="m 92.457,104.545 c -5.209,0 -9.445,-4.236 -9.445,-9.445 0,-5.209 4.236,-9.447 9.445,-9.447 5.209,0 9.447,4.238 9.447,9.447 0,5.209 -4.238,9.445 -9.447,9.445 z"
   id="path7" />
</g>
</svg>
